svg/24/move.svg

<svg width="24" height="24" viewBox="0 0 24 24" fill="currentColor" xmlns="http://www.w3.org/2000/svg"><path d="M14.2197 6.28033C14.5126 6.57322 14.9874 6.57322 15.2803 6.28033C15.5732 5.98744 15.5732 5.51256 15.2803 5.21967L12.5303 2.46967C12.2374 2.17678 11.7626 2.17678 11.4697 2.46967L8.71967 5.21967C8.42678 5.51256 8.42678 5.98744 8.71967 6.28033C9.01256 6.57322 9.48744 6.57322 9.78033 6.28033L11.25 4.81066V11.25H4.81066L6.28033 9.78033C6.57322 9.48744 6.57322 9.01256 6.28033 8.71967C5.98744 8.42678 5.51256 8.42678 5.21967 8.71967L2.46967 11.4697C2.17678 11.7626 2.17678 12.2374 2.46967 12.5303L5.21967 15.2803C5.51256 15.5732 5.98744 15.5732 6.28033 15.2803C6.57322 14.9874 6.57322 14.5126 6.28033 14.2197L4.81066 12.75H11.25V19.1893L9.78033 17.7197C9.48744 17.4268 9.01256 17.4268 8.71967 17.7197C8.42678 18.0126 8.42678 18.4874 8.71967 18.7803L11.4697 21.5303C11.7626 21.8232 12.2374 21.8232 12.5303 21.5303L15.2803 18.7803C15.5732 18.4874 15.5732 18.0126 15.2803 17.7197C14.9874 17.4268 14.5126 17.4268 14.2197 17.7197L12.75 19.1893V12.75H19.1893L17.7197 14.2197C17.4268 14.5126 17.4268 14.9874 17.7197 15.2803C18.0126 15.5732 18.4874 15.5732 18.7803 15.2803L21.5303 12.5303C21.8232 12.2374 21.8232 11.7626 21.5303 11.4697L18.7803 8.71967C18.4874 8.42678 18.0126 8.42678 17.7197 8.71967C17.4268 9.01256 17.4268 9.48744 17.7197 9.78033L19.1893 11.25H12.75V4.81066L14.2197 6.28033Z"/></svg>

<svg xmlns="http://www.w3.org/2000/svg" width="24" height="24" fill="currentColor" viewBox="0 0 24 24">
  <path d="M14.22 6.28a.75.75 0 1 0 1.06-1.06l-2.75-2.75a.75.75 0 0 0-1.06 0L8.72 5.22a.75.75 0 0 0 1.06 1.06l1.47-1.47v6.44H4.81l1.47-1.47a.75.75 0 0 0-1.06-1.06l-2.75 2.75a.75.75 0 0 0 0 1.06l2.75 2.75a.75.75 0 0 0 1.06-1.06l-1.47-1.47h6.44v6.44l-1.47-1.47a.75.75 0 0 0-1.06 1.06l2.75 2.75a.75.75 0 0 0 1.06 0l2.75-2.75a.75.75 0 1 0-1.06-1.06l-1.47 1.47v-6.44h6.44l-1.47 1.47a.75.75 0 1 0 1.06 1.06l2.75-2.75a.75.75 0 0 0 0-1.06l-2.75-2.75a.75.75 0 1 0-1.06 1.06l1.47 1.47h-6.44V4.81l1.47 1.47Z"/>
</svg>
